X:1
T:Title
%%score { ( 1 4 ) | ( 2 3 ) }
L:1/8
M:4/4
K:Eb
V:1 treble nm="Grand Piano"
V:4 treble 
V:2 bass 
V:3 bass 
V:1
 z4 z2[Q:1/4=100] E2 | G2 G2 G2 [GB]2 | [GB]2 [FA]2 [FA]2 [EG]2 | [DF]2 [DF]2 [EG]2 [DFA]2 | %4
[M:3/4] [Ac]2 [GB]2 [GB]2 |[M:1/4] [GB]2 |[M:4/4] [Ge]2 [Gd]2 .[CAc]2 [EGB]2 | %7
 [EAc]2 [EGB]2 [B,EG]2 [B,EG]2 | [B,GB]2 [B,FA]2 [B,EG]2 [G,E]2 |[M:7/8] [B,DG]2 [A,DF]2 [G,E]3 | %10
[M:1/4] [EB]2 |[M:4/4] B4 F2 z2 | G2 F2 E2 [B,GB]2 | e4 d2- [Ad]2 |[M:3/4] [Ge]6 |[M:1/4] [EB]2 | %16
[M:4/4] B4 F2 z2 | G2 F2 E2 [B,GB]2 | e4 d2- [Ad]2 |[M:3/4] [Ge]6 |] %20
V:2
 z4 z2 [E,G,]2 | [E,B,E]2 [E,B,E]2 [E,B,E]2 [E,B,]2 | [B,,B,]2 [B,,B,]2 [B,,B,]2 [B,,B,]2 | %3
 [B,,B,]2 [B,,B,]2 [B,,B,]2 B,,2 |[M:3/4] [E,E]2 [E,E]2 [E,E]2 |[M:1/4] [E,E]2 | %6
[M:4/4] [E,B,]2 [E,B,]2 z D E,2 | E,2 E,2 E,2 E,2 | B,,2 B,,2 B,,2 C,2 |[M:7/8] B,,2 B,,2 E,3 | %10
[M:1/4] [E,G,]2 |[M:4/4] F,4 z4 | E,2 F,2 G,2 E,2 | B,4 z4 |[M:3/4] [E,B,]6 |[M:1/4] [E,G,]2 | %16
[M:4/4] F,4 z4 | E,2 F,2 G,2 E,2 | B,4 z4 |[M:3/4] [E,B,]6 |] %20
V:3
 x8 | x8 | x8 | x8 |[M:3/4] x6 |[M:1/4] x2 |[M:4/4] z4 E,2 z2 | x8 | x8 |[M:7/8] x7 |[M:1/4] x2 | %11
[M:4/4] B,,2 C,2 D,2 B,,2 | x8 | z2 F2 [B,,B,]4 |[M:3/4] x6 |[M:1/4] x2 | %16
[M:4/4] B,,2 C,2 D,2 B,,2 | x8 | z2 F2 [B,,B,]4 |[M:3/4] x6 |] %20
V:4
 x8 | x8 | x8 | x8 |[M:3/4] x6 |[M:1/4] x2 |[M:4/4] x8 | x8 | x8 |[M:7/8] x7 |[M:1/4] x2 | %11
[M:4/4] D2 E2 [B,B]2- [B,AB]2 | [B,B]6 z2 | G2 z2 B2 z2 |[M:3/4] x6 |[M:1/4] x2 | %16
[M:4/4] D2 E2 [B,B]2- [B,AB]2 | [B,B]6 z2 | G2 z2 B2 z2 |[M:3/4] x6 |] %20

